compendiums/ShootApex.svg

<?xml version="1.0" encoding="UTF-8"?>
<!-- Created with Inkscape (http://www.inkscape.org/) -->

<svg version="1.1" id="ShootApex_svg" author="Provart Lab - Bio Analytic Resource, University of Toronto" width="762.29803" height="360.31293" viewBox="0 0 762.29802 360.31294">
   <g id="ATML1" fill="#662d91">
      <path id="path270"
         d="M183.528185 230.963465C183.528185 230.963465 198.084835 221.683595 209.730155 220.591845C209.730155 220.591845 229.017715 216.588775 243.574365 218.954225C243.574365 218.954225 259.040835 221.683595 272.141795 231.327375C272.141795 231.327375 302.164915 254.618005 316.721565 278.090635C316.721565 278.090635 318.359195 281.547825 318.359195 281.547825C318.359195 281.547825 320.360735 285.368945 320.360735 285.368945C320.360735 285.368945 324.363815 285.368945 324.363815 285.368945C324.363815 285.368945 328.184925 276.453015 329.458625 270.812285C329.458625 270.812285 342.923535 249.705155 306.167995 214.223305C306.167995 214.223305 284.470875 192.969635 263.112675 179.073945C263.112675 179.073945 223.741545 149.738585 199.295405 107.279509C199.295405 107.279509 196.464795 70.481654 214.735065 58.901904C214.735065 58.901904 227.344135 37.286384 270.060535 37.801034C270.060535 37.801034 336.965725 30.595864 387.916615 108.308822C387.916615 108.308822 419.825255 142.276075 440.411465 199.402825C440.411465 199.402825 469.232175 266.822675 467.173555 284.835645C467.173555 284.835645 467.383005 290.281815 463.379835 293.557075C463.379835 293.557075 462.288095 299.743645 469.930335 294.648815C469.930335 294.648815 476.480835 280.456085 469.930335 268.082915C469.930335 268.082915 454.281945 208.036735 422.257295 147.626615C422.257295 147.626615 376.039925 76.299019 347.654445 55.919714C347.654445 55.919714 285.424745 9.3384235 221.011565 45.002224C221.011565 45.002224 174.066355 85.760843 202.451825 124.335975C202.451825 124.335975 241.754785 171.645095 260.314535 182.926505C280.329935 196.027495 288.336085 206.581065 288.336085 206.581065C288.336085 206.581065 316.357635 233.510865 316.357635 233.510865C316.357635 233.510865 332.369955 258.985025 322.544225 277.180835C322.544225 277.180835 280.329935 209.128485 228.653805 212.403725C228.653805 212.403725 174.430275 209.128485 145.316975 272.085985C145.316975 272.085985 139.130395 278.636495 139.130395 278.636495C139.130395 278.636495 176.977685 196.391405 176.977685 196.391405C176.977685 196.391405 194.445665 136.709125 130.032485 134.889545C130.032485 134.889545 58.704878 140.712205 31.775068 289.917905C31.775068 289.917905 35.778148 291.373555 38.325568 288.462235C38.325568 288.462235 71.078038 102.864912 162.421035 150.901865C162.421035 150.901865 170.427185 160.727605 172.246765 173.464685C174.066355 186.201755 169.699365 196.391405 169.699365 196.391405C169.699365 196.391405 133.307725 279.182375 133.307725 279.182375C133.307725 279.182375 130.760315 285.914825 130.760315 285.914825C130.760315 285.914825 133.853605 289.372015 133.853605 289.372015C133.853605 289.372015 139.312345 285.550905 139.312345 285.550905C139.312345 285.550905 149.683965 275.725175 153.323125 269.356605C153.323125 269.356605 165.150405 242.790745 183.528185 230.963465C183.528185 230.963465 183.528185 230.963465 183.528185 230.963465"
         style="stroke-linejoin:miter;stroke-opacity:1;fill-opacity:1;stroke:#000000;stroke-linecap:butt;stroke-width:4.42818055676;fill:#662d91" />
      <path
         d="M474.661245 155.996695C474.661245 155.996695 484.486985 126.519475 520.878615 150.901865C522.698195 150.901865 570.371245 216.770725 655.163755 170.553345C655.163755 170.553345 679.182225 143.623545 703.200705 137.436965C703.200705 137.436965 724.671755 137.800875 723.580015 174.556425C723.580015 174.556425 714.118185 192.024415 685.732725 221.501645C685.732725 221.501645 671.176065 228.779955 659.894665 252.434525C648.613255 276.089095 624.958695 286.278745 624.958695 286.278745C624.958695 286.278745 584.563975 299.015805 547.080615 272.085985C547.080615 272.085985 519.786875 228.052135 519.786875 228.052135C519.786875 228.052135 505.230215 212.039815 492.129225 200.758405C492.129225 200.758405 465.563355 177.103845 474.661245 155.996695C474.661245 155.996695 474.661245 155.996695 474.661245 155.996695M662.806005 171.281185C662.806005 171.281185 595.117565 224.412975 528.156955 165.822435C528.156955 165.822435 492.857065 131.978215 482.667395 154.177115C482.667395 154.177115 469.202505 171.645095 503.046735 202.214065C503.046735 202.214065 527.793025 223.321225 536.527025 242.972695C536.527025 242.972695 552.539345 279.728245 584.927895 281.183915C584.927895 281.183915 634.056615 296.104475 654.799825 248.067515C654.799825 248.067515 678.818305 213.859395 692.647135 204.397565C692.647135 204.397565 730.494445 174.920345 714.482115 156.360615C713.026445 122.880305 662.806005 171.281185 662.806005 171.281185C662.806005 171.281185 662.806005 171.281185 662.806005 171.281185"
         style="stroke-linejoin:miter;stroke-opacity:1;fill-rule:evenodd;fill-opacity:1;stroke:#000000;stroke-linecap:butt;stroke-width:4.42818055676;fill:#662d91"
         id="path294" />
   </g>
   <g id="FIL">
      <path id="path173-5"
         d="M321.088545 170.553345C321.088545 170.553345 244.486285 81.171665 214.735065 58.901904C214.735065 58.901904 227.344135 37.286384 270.060535 37.801044C270.060535 37.801044 336.965725 30.595864 387.916615 108.308827C387.916615 108.308827 419.825255 142.276085 440.411465 199.402835C440.411465 199.402835 469.232175 266.822675 467.173555 284.835645C467.173555 284.835645 467.019005 303.382805 404.789315 289.190075C404.789315 289.190075 348.018375 273.905565 348.018375 273.905565C348.018375 273.905565 341.831805 274.269485 343.287455 265.171595C343.287455 265.171595 378.223415 239.697435 321.088545 170.553345C321.088545 170.553345 321.088545 170.553345 321.088545 170.553345"
         style="stroke-linejoin:miter;stroke-opacity:1;fill-opacity:1;stroke:#000000;stroke-linecap:butt;stroke-width:4.42818055676;fill:#83af9b" />
      <path
         style="stroke-linejoin:miter;stroke-opacity:1;fill-opacity:1;stroke:#000000;stroke-linecap:butt;stroke-width:4.42818055676;fill:#83af9b"
         d="M513.600305 186.201755C489.945735 170.917265 482.667395 154.177115 482.667395 154.177115C482.667395 154.177115 469.202505 171.645095 503.046735 202.214065C503.046735 202.214065 527.793025 223.321225 536.527025 242.972695C536.527025 242.972695 552.539345 279.728245 584.927895 281.183915C584.927895 281.183915 634.056615 296.104475 654.799825 248.067515C654.799825 248.067515 678.818305 213.859395 692.647135 204.397565C692.647135 204.397565 730.494445 174.920345 714.482115 156.360615C714.482115 156.360615 700.653285 186.565665 679.182225 189.840915C679.182225 189.840915 673.723485 183.290415 673.723485 183.290415C597.301045 254.618005 517.967285 181.106925 517.967285 181.106925C517.967285 181.106925 513.600305 186.201755 513.600305 186.201755"
         id="path330" />
      <path id="path125"
         d="M172.246765 173.464685C170.427185 160.727605 162.421035 150.901865 162.421035 150.901865C71.078038 102.864912 38.325568 288.462235 38.325568 288.462235C38.325568 288.462235 68.894538 273.541665 119.478905 279.364335C119.478905 279.364335 134.035565 240.425275 158.781875 191.660495C158.781875 191.660495 163.148865 172.009015 172.246765 173.464685C172.246765 173.464685 172.246765 173.464685 172.246765 173.464685"
         style="stroke-linejoin:miter;stroke-opacity:1;fill-opacity:1;stroke:#000000;stroke-linecap:butt;stroke-width:4.42818055676;fill:#83af9b" />
   </g>
   <g id="PTL">
      <path id="path298"
         d="M482.667395 154.177115C482.667395 154.177115 489.945735 170.917265 513.600305 186.201755C513.600305 186.201755 517.967285 181.106925 517.967285 181.106925C517.967285 181.106925 528.156955 165.822435 528.156955 165.822435C528.156955 165.822435 492.857065 131.978215 482.667395 154.177115C482.667395 154.177115 482.667395 154.177115 482.667395 154.177115"
         style="stroke-linejoin:miter;stroke-opacity:1;fill-opacity:1;stroke:#000000;stroke-linecap:butt;stroke-width:4.42818055676;fill:#123555" />
      <path
         style="stroke-linejoin:miter;stroke-opacity:1;fill-opacity:1;stroke:#000000;stroke-linecap:butt;stroke-width:4.42818055676;fill:#123555"
         d="M662.806005 171.281185C662.806005 171.281185 713.026445 122.880305 714.482115 156.360615C714.482115 156.360615 700.653285 186.565665 679.182225 189.840915C679.182225 189.840915 673.723485 183.290415 673.723485 183.290415C673.723485 183.290415 662.806005 171.281185 662.806005 171.281185"
         id="path324" />
   </g>
   <g id="AS2">
      <path id="path125-6"
         d="M119.478905 279.364335C119.478905 279.364335 134.035565 240.425275 158.781875 191.660495C158.781875 191.660495 163.148865 172.009015 172.246765 173.464685C174.066355 186.201755 169.699365 196.391405 169.699365 196.391405C169.699365 196.391405 133.307725 279.182375 133.307725 279.182375C127.121145 284.823085 119.478905 279.364375 119.478905 279.364375C119.478905 279.364375 119.478905 279.364335 119.478905 279.364335"
         style="stroke-linejoin:miter;stroke-opacity:1;fill-opacity:1;stroke:#000000;stroke-linecap:butt;stroke-width:4.42818055676;fill:#f9cdad" />
      <path id="path173"
         d="M214.735065 58.901914C196.464795 70.481654 199.295405 107.279514 199.295405 107.279514C223.741545 149.738585 263.112675 179.073945 263.112675 179.073945C284.470875 192.969645 306.167995 214.223305 306.167995 214.223305C342.923535 249.705155 329.458625 270.812285 329.458625 270.812285C329.458625 270.812285 329.822555 281.183915 343.287455 265.171595C343.287455 265.171595 378.223415 239.697455 321.088545 170.553345C321.088545 170.553345 244.486285 81.171672 214.735065 58.901914C214.735065 58.901914 214.735065 58.901914 214.735065 58.901914"
         style="stroke-linejoin:miter;stroke-opacity:1;fill-opacity:1;stroke:#000000;stroke-linecap:butt;stroke-width:4.42818055676;fill:#f9cdad" />
      <path id="path316"
         d="M673.723485 183.290415C673.723485 183.290415 662.806005 171.281185 662.806005 171.281185C662.806005 171.281185 595.117565 224.412975 528.156955 165.822435C528.156955 165.822435 517.967285 181.106925 517.967285 181.106925C517.967285 181.106925 597.301045 254.618005 673.723485 183.290415C673.723485 183.290415 673.723485 183.290415 673.723485 183.290415"
         style="stroke-linejoin:miter;stroke-opacity:1;fill-opacity:1;stroke:#000000;stroke-linecap:butt;stroke-width:4.42818055676;fill:#f9cdad" />
   </g>
   <g id="WUS">
      <path id="path292"
         d="M215.188885 244.610325C215.188885 244.610325 239.025405 242.608785 239.025405 242.608785C239.025405 242.608785 244.666115 244.610325 245.393945 246.793815C245.393945 246.793815 247.213535 258.985025 247.213535 258.985025C247.213535 258.985025 246.849625 265.353535 242.300665 266.809215C242.300665 266.809215 222.467225 268.446835 222.467225 268.446835C222.467225 268.446835 215.188885 267.900955 212.823435 263.715935C212.823435 263.715935 209.002315 250.614935 215.188885 244.610325C215.188885 244.610325 215.188885 244.610325 215.188885 244.610325"
         style="stroke-linejoin:miter;stroke-opacity:1;fill-opacity:1;stroke:#000000;stroke-linecap:butt;stroke-width:4.42818055676;fill:#c8c8a9" />
   </g>
   <g id="CLV3">
      <path id="path290"
         d="M209.730155 220.591845C209.730155 220.591845 229.563605 215.315055 245.575905 219.500105C245.575905 219.500105 247.941365 221.319685 247.213535 226.778415C247.213535 226.778415 246.849625 235.512405 246.849625 235.512405C246.849625 235.512405 245.030045 241.698995 239.025405 242.608785C239.025405 242.608785 215.188885 244.610325 215.188885 244.610325C215.188885 244.610325 209.366235 243.518575 207.546655 238.423735C207.546655 238.423735 204.271405 223.503175 209.730155 220.591845C209.730155 220.591845 209.730155 220.591845 209.730155 220.591845"
         style="stroke-linejoin:miter;stroke-opacity:1;fill-opacity:1;stroke:#000000;stroke-linecap:butt;stroke-width:4.42818055676;fill:#fc9d9a" />
   </g>
   <g id="UFO">
      <path id="path254"
         d="M272.141795 231.327375C272.141795 231.327375 302.164915 254.618005 316.721565 278.090635C316.721565 278.090635 300.425195 302.591255 251.532915 307.995115C251.532915 307.995115 203.927305 306.708485 203.927305 306.708485C203.927305 306.708485 188.230315 310.568395 147.829865 281.747695C147.829865 281.747695 153.323125 269.356605 153.323125 269.356605C153.323125 269.356605 165.150405 242.790745 183.528185 230.963465C183.528185 230.963465 194.445665 232.419125 199.540505 252.434525C199.540505 252.434525 208.092525 271.722085 218.464145 275.725175C218.464145 275.725175 244.484165 275.543175 244.484165 275.543175C244.484165 275.543175 256.675355 274.087485 259.586695 252.434475C259.586695 252.434475 260.132575 234.784595 260.132575 234.784595C260.132575 234.784595 257.767105 223.503175 272.141795 231.327375C272.141795 231.327375 272.141795 231.327375 272.141795 231.327375"
         style="stroke-linejoin:miter;stroke-opacity:1;fill-opacity:1;stroke:#000000;stroke-linecap:butt;stroke-width:4.42818055676;fill:#fe4365" />
   </g>
   <g id="LAS">
      <path id="path250"
         d="M130.760315 285.914825C130.760315 285.914825 125.301565 281.183915 124.573735 296.832315C124.573735 296.832315 134.399475 301.199315 140.222145 295.740575C140.222145 295.740575 142.041715 289.553975 139.312345 285.550905C139.312345 285.550905 133.853605 289.372015 133.853605 289.372015C133.853605 289.372015 130.760315 285.914825 130.760315 285.914825"
         style="stroke-linejoin:miter;stroke-opacity:1;fill-opacity:1;stroke:#000000;stroke-linecap:butt;stroke-width:4.42818055676;fill:#e69b03" />
      <path id="path252"
         d="M321.816385 290.281815C321.816385 290.281815 320.360735 285.368945 320.360735 285.368945C320.360735 285.368945 319.081445 281.233055 318.566815 281.361715C318.052135 281.490405 306.472405 291.011495 316.122185 299.117315C316.122185 299.117315 326.929965 308.381125 332.205165 295.000065C332.205165 295.000065 335.164425 288.180885 329.117235 281.747695C329.117235 281.747695 326.944225 282.428345 324.363815 285.368945C324.363815 285.368945 321.816385 290.281815 321.816385 290.281815"
         style="stroke-linejoin:miter;stroke-opacity:1;fill-opacity:1;stroke:#000000;stroke-linecap:butt;stroke-width:4.42818055676;fill:#e69b03" />
   </g>
   <g id="lines">
      <path id="path332" d="M175.363935 124.777795C175.363935 124.777795 434.235605 124.777795 434.235605 124.777795"
         style="stroke-linejoin:miter;stroke-opacity:1;stroke-dashoffset:0;stroke:#000000;stroke-linecap:butt;stroke-miterlimit:4;stroke-dasharray:4.42818094, 2.21409046;stroke-width:4.42818055676;fill:none" />
      <path id="path4828" d="M474.893375 113.455375C474.893375 113.455375 533.049445 80.517429 527.902885 137.644175"
         style="stroke-linejoin:miter;marker-end:url(#Arrow1Send);stroke-opacity:1;stroke-dashoffset:0;stroke:#000000;stroke-linecap:butt;stroke-miterlimit:4;stroke-dasharray:4.42818094, 2.21409046;stroke-width:4.42818055676;fill:none" />
   </g>
   <g id="labels">
      <text transform="matrix(1.000000,0.000000,0.000000,1.000000,10.519905,10.456705)" id="text5234" y="316.48904"
         x="209.84578"
         style="font-style:normal;font-variant:normal;font-weight:normal;font-stretch:normal;font-size:16px;line-height:1.25;font-family:Arial;-inkscape-font-specification:Arial;text-align:center;letter-spacing:0px;word-spacing:0px;text-anchor:middle;fill:#000000;fill-opacity:1;stroke:none"
         xml:space="preserve">
         <tspan style="font-size:16px" y="316.48904" x="209.84578" id="tspan5232" sodipodi:role="line">Longitudinal
            section of vegetative shoot apex</tspan>
      </text>
      <text transform="matrix(1.000000,0.000000,0.000000,1.000000,10.519905,10.456705)" id="text5238" y="314.50986"
         x="589.20001"
         style="font-style:normal;font-variant:normal;font-weight:normal;font-stretch:normal;font-size:8px;line-height:1.25;font-family:Arial;-inkscape-font-specification:Arial;text-align:center;letter-spacing:0px;word-spacing:0px;text-anchor:middle;fill:#000000;fill-opacity:1;stroke:none"
         xml:space="preserve">
         <tspan style="font-size:16px" y="314.50986" x="589.20001" id="tspan5236" sodipodi:role="line">Transverse
            section of leaf primordium</tspan>
      </text>
   </g>
</svg>

<svg xmlns="http://www.w3.org/2000/svg" id="ShootApex_svg" version="1.1" viewBox="0 0 709.985 303.969" author="Provart Lab - Bio Analytic Resource, University of Toronto">
  <g id="ATML1" fill="#662d91" fill-opacity="1" stroke="#000" stroke-linecap="butt" stroke-linejoin="miter" stroke-opacity="1" stroke-width="4.428" transform="translate(-25.75 -27.85)">
    <path id="path270" d="M183.528 230.963s14.557-9.28 26.202-10.371c0 0 19.288-4.003 33.844-1.638 0 0 15.467 2.73 28.568 12.373 0 0 30.023 23.291 44.58 46.764l1.637 3.457 2.002 3.82h4.003s3.82-8.915 5.095-14.556c0 0 13.465-21.107-23.291-56.589 0 0-21.697-21.253-43.055-35.15 0 0-39.371-29.334-63.818-71.793 0 0-2.83-36.798 15.44-48.378 0 0 12.61-21.616 55.326-21.101 0 0 66.905-7.205 117.856 70.508 0 0 31.908 33.967 52.494 91.094 0 0 28.821 67.42 26.763 85.433 0 0 .209 5.446-3.794 8.721 0 0-1.092 6.187 6.55 1.092 0 0 6.55-14.193 0-26.566 0 0-15.648-60.046-47.673-120.456 0 0-46.217-71.328-74.603-91.707 0 0-62.23-46.582-126.642-10.918 0 0-46.946 40.759-18.56 79.334 0 0 39.303 47.31 57.863 58.59 20.015 13.101 28.021 23.655 28.021 23.655l28.022 26.93s16.012 25.474 6.186 43.67c0 0-42.214-68.053-93.89-64.777 0 0-54.224-3.276-83.337 59.682l-6.187 6.55 37.848-82.245s17.468-59.682-46.946-61.501c0 0-71.327 5.822-98.257 155.028 0 0 4.003 1.456 6.55-1.456 0 0 32.753-185.597 124.096-137.56 0 0 8.006 9.826 9.826 22.563 1.82 12.737-2.548 22.926-2.548 22.926l-36.391 82.791-2.548 6.733 3.094 3.457 5.458-3.821s10.372-9.826 14.011-16.194c0 0 11.827-26.566 30.205-38.394"/>
    <path id="path294" fill-rule="evenodd" d="M474.661 155.997s9.826-29.478 46.218-5.095c1.82 0 49.492 65.869 134.285 19.651 0 0 24.018-26.93 48.037-33.116 0 0 21.47.364 20.379 37.12 0 0-9.462 17.467-37.847 46.945 0 0-14.557 7.278-25.838 30.933-11.282 23.654-34.936 33.844-34.936 33.844s-40.395 12.737-77.878-14.193l-27.294-44.034s-14.557-16.012-27.658-27.294c0 0-26.566-23.654-17.468-44.761m188.145 15.284s-67.688 53.132-134.649-5.459c0 0-35.3-33.844-45.49-11.645 0 0-13.465 17.468 20.38 48.037 0 0 24.746 21.107 33.48 40.759 0 0 16.012 36.755 48.4 38.21 0 0 49.13 14.921 69.873-33.115 0 0 24.018-34.209 37.847-43.67 0 0 37.847-29.478 21.835-48.037-1.456-33.48-51.676 14.92-51.676 14.92"/>
  </g>
  <g id="FIL" fill="#83af9b" fill-opacity="1" stroke="#000" stroke-linecap="butt" stroke-linejoin="miter" stroke-opacity="1" stroke-width="4.428" transform="translate(-25.75 -27.85)">
    <path id="path173-5" d="M321.089 170.553S244.486 81.172 214.735 58.902c0 0 12.61-21.616 55.326-21.101 0 0 66.905-7.205 117.856 70.508 0 0 31.908 33.967 52.494 91.094 0 0 28.821 67.42 26.763 85.433 0 0-.155 18.547-62.385 4.354l-56.77-15.284s-6.187.363-4.732-8.734c0 0 34.936-25.475-22.198-94.619"/>
    <path id="path330" d="M513.6 186.202c-23.654-15.285-30.933-32.025-30.933-32.025s-13.464 17.468 20.38 48.037c0 0 24.746 21.107 33.48 40.759 0 0 16.012 36.755 48.4 38.21 0 0 49.13 14.921 69.873-33.115 0 0 24.018-34.209 37.847-43.67 0 0 37.847-29.478 21.835-48.037 0 0-13.829 30.205-35.3 33.48l-5.459-6.55c-76.422 71.327-155.756-2.184-155.756-2.184l-4.367 5.095"/>
    <path id="path125" d="M172.247 173.465c-1.82-12.737-9.826-22.563-9.826-22.563-91.343-48.037-124.095 137.56-124.095 137.56s30.569-14.92 81.153-9.098c0 0 14.557-38.939 39.303-87.704 0 0 4.367-19.651 13.465-18.195"/>
  </g>
  <g id="PTL" fill="#123555" fill-opacity="1" stroke="#000" stroke-linecap="butt" stroke-linejoin="miter" stroke-opacity="1" stroke-width="4.428" transform="translate(-25.75 -27.85)">
    <path id="path298" d="M482.667 154.177s7.279 16.74 30.933 32.025l4.367-5.095 10.19-15.285s-35.3-33.844-45.49-11.645"/>
    <path id="path324" d="M662.806 171.281s50.22-48.4 51.676-14.92c0 0-13.829 30.205-35.3 33.48l-5.459-6.55-10.917-12.01"/>
  </g>
  <g id="AS2" fill="#f9cdad" fill-opacity="1" stroke="#000" stroke-linecap="butt" stroke-linejoin="miter" stroke-opacity="1" stroke-width="4.428" transform="translate(-25.75 -27.85)">
    <path id="path125-6" d="M119.479 279.364s14.557-38.939 39.303-87.704c0 0 4.367-19.651 13.465-18.195 1.82 12.737-2.548 22.926-2.548 22.926l-36.391 82.791c-6.187 5.641-13.83.182-13.83.182"/>
    <path id="path173" d="M214.735 58.902c-18.27 11.58-15.44 48.378-15.44 48.378 24.447 42.459 63.818 71.794 63.818 71.794 21.358 13.896 43.055 35.15 43.055 35.15 36.756 35.481 23.29 56.588 23.29 56.588s.365 10.372 13.83-5.64c0 0 34.935-25.475-22.2-94.619 0 0-76.602-89.381-106.353-111.651"/>
    <path id="path316" d="m673.723 183.29-10.917-12.009s-67.688 53.132-134.649-5.459l-10.19 15.285s79.334 73.511 155.756 2.183"/>
  </g>
  <g id="WUS" transform="translate(-25.75 -27.85)">
    <path id="path292" fill="#c8c8a9" fill-opacity="1" stroke="#000" stroke-linecap="butt" stroke-linejoin="miter" stroke-opacity="1" stroke-width="4.428" d="m215.189 244.61 23.836-2.001s5.641 2.001 6.369 4.185l1.82 12.191s-.364 6.369-4.913 7.824l-19.834 1.638s-7.278-.546-9.644-4.731c0 0-3.82-13.101 2.366-19.106"/>
  </g>
  <g id="CLV3" transform="translate(-25.75 -27.85)">
    <path id="path290" fill="#fc9d9a" fill-opacity="1" stroke="#000" stroke-linecap="butt" stroke-linejoin="miter" stroke-opacity="1" stroke-width="4.428" d="M209.73 220.592s19.834-5.277 35.846-1.092c0 0 2.365 1.82 1.638 7.278l-.364 8.734s-1.82 6.187-7.825 7.097l-23.836 2.001s-5.823-1.091-7.642-6.186c0 0-3.276-14.92 2.183-17.832"/>
  </g>
  <g id="UFO" transform="translate(-25.75 -27.85)">
    <path id="path254" fill="#fe4365" fill-opacity="1" stroke="#000" stroke-linecap="butt" stroke-linejoin="miter" stroke-opacity="1" stroke-width="4.428" d="M272.142 231.327s30.023 23.291 44.58 46.764c0 0-16.297 24.5-65.19 29.904l-47.605-1.287s-15.697 3.86-56.097-24.96l5.493-12.391s11.827-26.566 30.205-38.394c0 0 10.918 1.456 16.012 21.472 0 0 8.553 19.287 18.924 23.29l26.02-.182s12.191-1.456 15.103-23.109l.546-17.65s-2.366-11.28 12.009-3.457"/>
  </g>
  <g id="LAS" fill="#e69b03" fill-opacity="1" stroke="#000" stroke-linecap="butt" stroke-linejoin="miter" stroke-opacity="1" stroke-width="4.428" transform="translate(-25.75 -27.85)">
    <path id="path250" d="M130.76 285.915s-5.458-4.731-6.186 10.917c0 0 9.825 4.367 15.648-1.091 0 0 1.82-6.187-.91-10.19l-5.458 3.821-3.094-3.457"/>
    <path id="path252" d="m321.816 290.282-1.455-4.913s-1.28-4.136-1.794-4.007c-.515.128-12.095 9.65-2.445 17.755 0 0 10.808 9.264 16.083-4.117 0 0 2.96-6.82-3.088-13.252 0 0-2.173.68-4.753 3.62l-2.548 4.914"/>
  </g>
  <g id="lines" fill="none" stroke="#000" stroke-dasharray="4.428 2.214" stroke-dashoffset="0" stroke-linecap="butt" stroke-linejoin="miter" stroke-miterlimit="4" stroke-opacity="1" stroke-width="4.428" transform="translate(-25.75 -27.85)">
    <path id="path332" d="M175.364 124.778h258.872"/>
    <path id="path4828" marker-end="url(#Arrow1Send)" d="M474.893 113.455s58.156-32.938 53.01 24.19"/>
  </g>
  <g id="labels" fill="#000" fill-opacity="1" stroke="none" font-family="Arial" font-stretch="normal" font-style="normal" font-variant="normal" font-weight="400" letter-spacing="0" text-anchor="middle" word-spacing="0">
    <text xml:space="preserve" id="text5234" x="194.616" y="299.096" font-size="16" style="line-height:1.25;-inkscape-font-specification:Arial;text-align:center"><tspan id="tspan5232" x="194.616" y="299.096" font-size="16">Longitudinal section of vegetative shoot apex</tspan></text>
    <text xml:space="preserve" id="text5238" x="573.97" y="297.117" font-size="8" style="line-height:1.25;-inkscape-font-specification:Arial;text-align:center"><tspan id="tspan5236" x="573.97" y="297.117" font-size="16">Transverse section of leaf primordium</tspan></text>
  </g>
</svg>
